src/icons/3-dots.svg

<svg xmlns="http://www.w3.org/2000/svg" width="24" height="24" fill="none"><path fill="currentColor" d="M11 4h3v3h-3zm0 7h3v3h-3zm3 7h-3v3h3z"/></svg>

<svg width="24" height="24" viewBox="0 0 24 24" fill="none" xmlns="http://www.w3.org/2000/svg">
<path d="M11 4H14V7H11V4Z" fill="black"/>
<path d="M11 11H14V14H11V11Z" fill="black"/>
<path d="M14 18H11V21H14V18Z" fill="black"/>
</svg>
